X:1
T:Living in the Sunshine
T:Living in the Sunshine
T:A. H. Butler
T:A. H. Butler, 1898
T:Public Domain Courtesy of the Cyber Hymnal™
T:Public Domain Courtesy of the Cyber Hymnal™
C:A. H. Butler
Z:Public Domain
Z:Courtesy of the Cyber Hymnal™
%%score ( 1 2 ) ( 3 4 )
L:1/8
Q:1/4=97
M:4/4
K:Db
V:1 treble 
V:2 treble 
V:3 bass 
V:4 bass 
V:1
 [DF]>[EG] [FA]>[GB] [FA]>[DF] [FA]>[Fd] | [Gd]2 [Gc]2 [Gc]4 | %2
w: 1.~Liv- ing in the sun- shine of the|Sav- ior’s love,|
w: 2.~As thro’ life we jour- ney on the|heav’n- ly road,|
w: 3.~Thus it will be ev- er, if we|trust in Him,|
 [CE]>[DF] [EG]>[FA] [Gc]>[GB] [FA]>[EG] | [DF]2 [GB]2 [FA]4 | %4
w: Walk- ing in the rad- iance of that|home a- bove,|
w: Tak- ing as our guid- ing star God’s|bless- èd Word,|
w: He will safe- ly lead us thro’ the|sha- dows dim,|
 [DF]>[EG] [FA]>[GB] [FA]>[DF] [Fd]>[Ac] | [Ge]2 [Bd]2 ([Ac]2 [GB]2) | %6
w: Look- ing un- to Je- sus as we|toil and sing *|
w: When the way is dark- est then from|Heav’n a- bove *|
w: Guide our way- ward foot- steps till the|night is past, *|
 [FA]>[FA] [Ad]>[Ae] [Af]>[Ad] [GB]>[Ge] | [Fd]2 c2 [Fd]4 ||"^Refrain" [FA]4 [Fd]4 | [Gd]4 [GB]4 | %10
w: Prais- es and thanks- giv- ing un- to|Christ our king!|||
w: Bursts the cheer- ing sun- shine of a|Sav- ior’s love!|Liv- ing,|liv- ing,|
w: And in Hea- ven’s sun- shine we are|safe at last.|||
 [FA]>[FA] [GB]>[GB] [FA]2 [DF]2 | [CE]2 [DF]2 ([EG]2 [GB]2) | [FA]4 [Fd]4 | [Ge]4 [GB]4 | %14
w: ||||
w: Liv- ing in the sun- shine|of His love, *|Look- ing|up- ward,|
w: ||||
 [FA]>[FA] [GB]>[GB] [FA]2 [Ad]2 | [Af]2 [Ae]2 [Fd]4 |] %16
w: ||
w: Up- ward to that ra- diant|home a- bove.|
w: ||
V:2
 x8 | x8 | x8 | x8 | x8 | x8 | x8 | x2 (EG) x4 || x8 | x8 | x8 | x8 | x8 | x8 | x8 | x8 |] %16
V:3
 [D,A,]>[D,A,] [D,D]>[D,D] [D,D]>[D,A,] [D,D]>[D,A,] | [E,A,]2 [E,A,]2 [E,A,]4 | %2
w: ||
 A,>A, A,>[A,D] [A,,E]>[A,,C] [B,,D]>[C,A,] | [D,A,]2 [D,D]2 [D,D]4 | %4
w: Liv- ing in * * * * *||
 [D,A,]>[D,A,] [D,D]>[D,D] [D,D]>[D,A,] [D,A,]>[F,A,] | [G,B,]2 [G,D]2 [G,D]4 | %6
w: ||
 [D,D]>[D,D] [F,D]>[E,C] [D,D]>[F,D] [G,D]>[G,B,] | A,2 [A,,A,]2 [D,F,]4 || %8
w: |the * *|
 [D,D]>[D,D] [D,D]>[D,D] [D,A,]2 [D,A,]2 | [G,B,]>[G,B,] [G,B,]>[G,B,] [G,D]2 [G,D]2 | %10
w: sun- shine, Liv- ing in the|sun- shine, Liv- ing in the|
 [D,D]>[D,D] [D,D]>[D,D] [D,D]2 [D,A,]2 | [A,,A,]>[A,,A,] [A,,A,]>[A,,A,] [A,,C]4 | %12
w: sun- shine of a Sav- ior’s|love, Look- ing un- to|
 [D,D]>[D,D] [D,D]>[D,D] [D,A,]2 [D,A,]2 | [G,B,]>[G,B,] [G,B,]>[G,B,] [G,D]2 [G,D]2 | %14
w: Je- sus, ever look- ing upward,||
 [D,D]>[D,D] [D,D]>[D,D] [D,D]2 [F,D]2 | [A,D]2 [A,C]2 [D,D]4 |] %16
w: ||
V:4
 x8 | x8 | A,>A, A,3/2 x9/2 | x8 | x8 | x8 | x8 | A,2 x6 || x8 | x8 | x8 | x8 | x8 | x8 | x8 | %15
 x8 |] %16

